X:53
T:Fairies' Hornpipe, The
N:page 18
N:heptatonic
N:matches 287
R:hornpipe
H:Similar to "McNamara's", #27
N:The ending is also played |Abcd ecAF|G2GF G2|
M:C|
K:Cmaj
ED|"C"C2CD ECFE|"G"DCDE "C" C2EF|GcBc "Am"AGFE|"Dm"FAGE "G7"D2EF| "C"GccB "F"c2BA|
"Em"GAGF "Am"E2DC|"Dm"DEFD "G7"GFDB,|"C"C2"Fm"CB, "C"C2::EF|"C"GccB "F" c2BA|"Em"GAGF "Am"E2DC|
"Dm"DEFG AGFE|"G"DG"D"G^F "G7"G2E=F| "C"GccB "Fm"c2BA|"Em"GAGF "A7"E2DC|"Dm"DEFD "G7" GFDB,|"C"C2CB, C2:|

